groups/oxygen/carbonate.svg

<svg height="256" viewBox="0 0 256 256" width="256" xmlns="http://www.w3.org/2000/svg"><path d="m0 0h256v256h-256z" fill="#fff"/><g fill="none" stroke-width="2"><path d="m230 137.6-33.4 19.2" stroke="#000"/><path d="m174.9 156.8-33.4-19.3" stroke="#000"/><path d="m145.3 139.7.1-36.3" stroke="#000"/><path d="m137.7 139.7v-36.3" stroke="#000"/><path d="m141.5 137.5-33.4 19.2" stroke="#000"/><path d="m86.3 156.7-22.4-13" stroke="#000"/><path d="m143.2 138.5-1.7-1-1.7 1" stroke="#000" stroke-miterlimit="10"/><path d="m217.282 115.424c-1.661.957-.385 3.171 1.276 2.214s2.937 1.258 1.276 2.214c-1.661.957-.385 3.172 1.276 2.215 1.66-.957 2.936 1.257 1.276 2.214-1.661.957-.385 3.172 1.275 2.215 1.661-.957 2.937 1.257 1.276 2.214-1.66.957-.385 3.172 1.276 2.215s2.937 1.257 1.276 2.214-.385 3.171 1.276 2.214c1.661-.956 2.937 1.258 1.276 2.215s-.385 3.171 1.276 2.214 2.937 1.258 1.276 2.215-.385 3.171 1.276 2.214c1.66-.957 2.936 1.258 1.276 2.215-1.661.957-.385 3.171 1.275 2.214 1.661-.957 2.937 1.258 1.276 2.214-1.66.957-.385 3.172 1.276 2.215s2.937 1.257 1.276 2.214-.385 3.172 1.276 2.215 2.937 1.257 1.276 2.214" stroke="#7f7f7f"/></g><text font-family="sans-serif" font-size="30" x="176.6" y="178.4">O</text><text font-family="sans-serif" font-size="30" x="132.4" y="101.7">O</text><text font-family="sans-serif" font-size="30" x="88" y="178.4">O</text><text font-family="sans-serif" font-size="30" x="12.8" y="152.8">H</text><text font-family="sans-serif" font-size="20" x="34" y="165">3</text><text font-family="sans-serif" font-size="30" x="43.8" y="152.8">C</text></svg>

<?xml version='1.0' encoding='iso-8859-1'?>
<svg version='1.1' baseProfile='full'
              xmlns='http://www.w3.org/2000/svg'
                      xmlns:rdkit='http://www.rdkit.org/xml'
                      xmlns:xlink='http://www.w3.org/1999/xlink'
                  xml:space='preserve'
width='256px' height='256px' viewBox='0 0 256 256'>
<!-- END OF HEADER -->
<rect style='opacity:1.0;fill:#FFFFFF;stroke:none' width='256.0' height='256.0' x='0.0' y='0.0'> </rect>
<path class='bond-0 atom-0 atom-1' d='M 230.0,137.6 L 196.6,156.8' style='fill:none;fill-rule:evenodd;stroke:#000000;stroke-width:2.0px;stroke-linecap:butt;stroke-linejoin:miter;stroke-opacity:1' />
<path class='bond-1 atom-1 atom-2' d='M 174.9,156.8 L 141.5,137.5' style='fill:none;fill-rule:evenodd;stroke:#000000;stroke-width:2.0px;stroke-linecap:butt;stroke-linejoin:miter;stroke-opacity:1' />
<path class='bond-2 atom-2 atom-3' d='M 145.3,139.7 L 145.4,103.4' style='fill:none;fill-rule:evenodd;stroke:#000000;stroke-width:2.0px;stroke-linecap:butt;stroke-linejoin:miter;stroke-opacity:1' />
<path class='bond-2 atom-2 atom-3' d='M 137.7,139.7 L 137.7,103.4' style='fill:none;fill-rule:evenodd;stroke:#000000;stroke-width:2.0px;stroke-linecap:butt;stroke-linejoin:miter;stroke-opacity:1' />
<path class='bond-3 atom-2 atom-4' d='M 141.5,137.5 L 108.1,156.7' style='fill:none;fill-rule:evenodd;stroke:#000000;stroke-width:2.0px;stroke-linecap:butt;stroke-linejoin:miter;stroke-opacity:1' />
<path class='bond-4 atom-4 atom-5' d='M 86.3,156.7 L 63.9,143.7' style='fill:none;fill-rule:evenodd;stroke:#000000;stroke-width:2.0px;stroke-linecap:butt;stroke-linejoin:miter;stroke-opacity:1' />
<path d='M 143.2,138.5 L 141.5,137.5 L 139.8,138.5' style='fill:none;stroke:#000000;stroke-width:2.0px;stroke-linecap:butt;stroke-linejoin:miter;stroke-miterlimit:10;stroke-opacity:1;' />
<path class='atom-1' d='M217.282,115.424 C215.621,116.381 216.897,118.595 218.558,117.638 C220.219,116.681 221.495,118.896 219.834,119.852 C218.173,120.809 219.449,123.024 221.11,122.067 C222.77,121.11 224.046,123.324 222.386,124.281 C220.725,125.238 222.001,127.453 223.661,126.496 C225.322,125.539 226.598,127.753 224.937,128.71 C223.277,129.667 224.552,131.882 226.213,130.925 C227.874,129.968 229.15,132.182 227.489,133.139 C225.828,134.096 227.104,136.31 228.765,135.353 C230.426,134.397 231.702,136.611 230.041,137.568 C228.38,138.525 229.656,140.739 231.317,139.782 C232.978,138.825 234.254,141.04 232.593,141.997 C230.932,142.954 232.208,145.168 233.869,144.211 C235.529,143.254 236.805,145.469 235.145,146.426 C233.484,147.383 234.76,149.597 236.42,148.64 C238.081,147.683 239.357,149.898 237.696,150.854 C236.036,151.811 237.311,154.026 238.972,153.069 C240.633,152.112 241.909,154.326 240.248,155.283 C238.587,156.24 239.863,158.455 241.524,157.498 C243.185,156.541 244.461,158.755 242.8,159.712' style='fill:none;stroke:#7F7F7F;stroke-width:2.0px;stroke-linecap:butt;stroke-linejoin:miter;stroke-opacity:1' />
<text x='176.6' y='178.4' class='atom-1' style='font-size:30px;font-style:normal;font-weight:normal;fill-opacity:1;stroke:none;font-family:sans-serif;text-anchor:start;fill:#000000' >O</text>
<text x='132.4' y='101.7' class='atom-3' style='font-size:30px;font-style:normal;font-weight:normal;fill-opacity:1;stroke:none;font-family:sans-serif;text-anchor:start;fill:#000000' >O</text>
<text x='88.0' y='178.4' class='atom-4' style='font-size:30px;font-style:normal;font-weight:normal;fill-opacity:1;stroke:none;font-family:sans-serif;text-anchor:start;fill:#000000' >O</text>
<text x='12.8' y='152.8' class='atom-5' style='font-size:30px;font-style:normal;font-weight:normal;fill-opacity:1;stroke:none;font-family:sans-serif;text-anchor:start;fill:#000000' >H</text>
<text x='34.0' y='165.0' class='atom-5' style='font-size:20px;font-style:normal;font-weight:normal;fill-opacity:1;stroke:none;font-family:sans-serif;text-anchor:start;fill:#000000' >3</text>
<text x='43.8' y='152.8' class='atom-5' style='font-size:30px;font-style:normal;font-weight:normal;fill-opacity:1;stroke:none;font-family:sans-serif;text-anchor:start;fill:#000000' >C</text>
</svg>
